img/food-theme.svg

<svg xmlns="http://www.w3.org/2000/svg" width="170" height="170"><path fill-rule="evenodd" fill="#F5EEE3" d="M167.063 94.971l-25.489 12.76c.314 1.241.612 2.482.848 3.754h14.296c7.322 0 13.281 5.962 13.281 13.295 0 2.607-.955 5.12-2.685 7.067l-18.565 20.908v3.931c0 7.333-5.959 13.295-13.281 13.295H34.53c-7.323 0-13.281-5.962-13.281-13.295v-3.931L2.684 131.847c-1.731-1.947-2.685-4.46-2.685-7.067 0-7.333 5.958-13.295 13.281-13.295h14.295c5.018-27.186 28.833-47.86 57.424-47.86 23.478 0 43.714 13.965 52.995 34l24.316-12.168c2.633-1.303 5.816-.249 7.128 2.378 1.313 2.628.249 5.822-2.375 7.136zM84.999 68.943c-25.655 0-47.117 18.301-52.054 42.542h5.466c4.837-21.307 23.839-37.224 46.588-37.224 19.364 0 35.999 11.544 43.517 28.11l4.734-2.368c-8.407-18.295-26.848-31.06-48.251-31.06zm0 26.589c10.863 0 20.199 6.58 24.311 15.953h.996l3.958-1.984c-4.895-11.331-16.166-19.287-29.265-19.287-13.847 0-25.626 8.901-30.015 21.271h5.704c4.112-9.373 13.447-15.953 24.311-15.953zm-18.295 15.953h6.503c2.918-3.24 7.099-5.317 11.792-5.317 4.692 0 8.874 2.077 11.792 5.317h6.503c-3.686-6.325-10.467-10.635-18.295-10.635-7.829 0-14.61 4.31-18.295 10.635zm18.295-26.589c15.174 0 28.235 9.161 34.012 22.232l4.745-2.373c-6.654-14.817-21.507-25.177-38.757-25.177-19.761 0-36.365 13.591-41.102 31.907h5.481c4.586-15.356 18.809-26.589 35.621-26.589zm51.719 25.259l-2.651 1.33h2.985c-.09-.452-.23-.883-.334-1.33zm-3.907 11.966H13.28c-1.468 0-2.656 1.189-2.656 2.659l21.25 23.929v7.977c0 1.47 1.188 2.659 2.656 2.659h100.938c1.468 0 2.656-1.189 2.656-2.659v-7.977l21.25-23.929c0-1.47-1.188-2.659-2.656-2.659h-23.907zm-20.757-62.713c.013.037.013.067.003.104.054.213.093.436.093.665 0 1.475-1.196 2.674-2.669 2.674-1.028 0-1.909-.587-2.356-1.438h-.01c-.015-.032-.026-.062-.041-.094-.034-.073-.062-.145-.091-.223-2.76-6.663-.021-13.201 2.456-19.101 2.343-5.592 4.418-10.547 2.273-15.381l-.024-.063a.37983.37983 0 0 1-.018-.047c-.005-.01-.005-.021-.008-.03-.103-.281-.168-.583-.168-.899 0-1.439 1.167-2.607 2.604-2.607 1.105 0 2.044.691 2.423 1.667 2.968 6.762.273 13.409-2.241 19.396-2.325 5.541-4.215 10.688-2.226 15.377zM84.766 36.46c.012.036.012.067.002.104.054.213.093.436.093.664 0 1.476-1.196 2.675-2.669 2.675-1.027 0-1.909-.587-2.355-1.438h-.011c-.015-.032-.025-.063-.041-.094-.034-.073-.063-.146-.091-.223-2.76-6.663-.02-13.201 2.457-19.101 2.342-5.593 4.417-10.547 2.272-15.382-.008-.02-.016-.042-.024-.062-.007-.016-.012-.031-.018-.047-.005-.011-.005-.021-.007-.031-.104-.281-.169-.582-.169-.898 0-1.439 1.167-2.608 2.604-2.608 1.105 0 2.044.691 2.423 1.667 2.968 6.762.272 13.409-2.241 19.397-2.324 5.541-4.216 10.687-2.225 15.377zM47.355 60.182c.013.037.013.067.003.104.054.213.093.436.093.665 0 1.474-1.196 2.674-2.669 2.674-1.028 0-1.91-.587-2.356-1.438h-.01c-.016-.032-.026-.062-.042-.094-.034-.073-.062-.145-.09-.223-2.761-6.663-.021-13.201 2.456-19.101 2.342-5.592 4.417-10.547 2.272-15.382-.008-.02-.015-.042-.023-.062-.008-.016-.013-.031-.018-.047-.005-.01-.005-.021-.008-.031-.104-.281-.169-.582-.169-.899 0-1.438 1.168-2.606 2.604-2.606 1.106 0 2.045.691 2.424 1.667 2.967 6.762.272 13.409-2.242 19.396-2.324 5.541-4.215 10.688-2.225 15.377z"/></svg>

﻿<svg 
 xmlns="http://www.w3.org/2000/svg"
 xmlns:xlink="http://www.w3.org/1999/xlink"
 width="170px" height="170px">
<path fill-rule="evenodd"  fill="rgb(245, 238, 227)"
 d="M167.063,94.971 L141.574,107.731 C141.888,108.972 142.186,110.213 142.422,111.485 L156.718,111.485 C164.040,111.485 169.999,117.447 169.999,124.780 C169.999,127.387 169.044,129.900 167.314,131.847 L148.749,152.755 L148.749,156.686 C148.749,164.019 142.790,169.981 135.468,169.981 L34.530,169.981 C27.207,169.981 21.249,164.019 21.249,156.686 L21.249,152.755 L2.684,131.847 C0.953,129.900 -0.001,127.387 -0.001,124.780 C-0.001,117.447 5.957,111.485 13.280,111.485 L27.575,111.485 C32.593,84.299 56.408,63.625 84.999,63.625 C108.477,63.625 128.713,77.590 137.994,97.625 L162.310,85.457 C164.943,84.154 168.126,85.208 169.438,87.835 C170.751,90.463 169.687,93.657 167.063,94.971 ZM84.999,68.943 C59.344,68.943 37.882,87.244 32.945,111.485 L38.411,111.485 C43.248,90.178 62.250,74.261 84.999,74.261 C104.363,74.261 120.998,85.805 128.516,102.371 L133.250,100.003 C124.843,81.708 106.402,68.943 84.999,68.943 ZM84.999,95.532 C95.862,95.532 105.198,102.112 109.310,111.485 L110.306,111.485 L114.264,109.501 C109.369,98.170 98.098,90.214 84.999,90.214 C71.152,90.214 59.373,99.115 54.984,111.485 L60.688,111.485 C64.800,102.112 74.135,95.532 84.999,95.532 ZM66.704,111.485 L73.207,111.485 C76.125,108.245 80.306,106.168 84.999,106.168 C89.691,106.168 93.873,108.245 96.791,111.485 L103.294,111.485 C99.608,105.160 92.827,100.850 84.999,100.850 C77.170,100.850 70.389,105.160 66.704,111.485 ZM84.999,84.896 C100.173,84.896 113.234,94.057 119.011,107.128 L123.756,104.755 C117.102,89.938 102.249,79.578 84.999,79.578 C65.238,79.578 48.634,93.169 43.897,111.485 L49.378,111.485 C53.964,96.129 68.187,84.896 84.999,84.896 ZM136.718,110.155 L134.067,111.485 L137.052,111.485 C136.962,111.033 136.822,110.602 136.718,110.155 ZM132.811,122.121 L127.499,122.121 L122.186,122.121 L116.874,122.121 L111.561,122.121 L106.249,122.121 L100.936,122.121 L69.061,122.121 L63.749,122.121 L58.436,122.121 L53.124,122.121 L47.811,122.121 L42.499,122.121 L37.186,122.121 L31.874,122.121 L26.561,122.121 L13.280,122.121 C11.812,122.121 10.624,123.310 10.624,124.780 L31.874,148.709 L31.874,156.686 C31.874,158.156 33.062,159.345 34.530,159.345 L135.468,159.345 C136.936,159.345 138.124,158.156 138.124,156.686 L138.124,148.709 L159.374,124.780 C159.374,123.310 158.186,122.121 156.718,122.121 L143.436,122.121 L138.124,122.121 L132.811,122.121 ZM112.054,59.408 C112.067,59.445 112.067,59.475 112.057,59.512 C112.111,59.725 112.150,59.948 112.150,60.177 C112.150,61.652 110.954,62.851 109.481,62.851 C108.453,62.851 107.572,62.264 107.125,61.413 C107.121,61.413 107.115,61.413 107.115,61.413 C107.100,61.381 107.089,61.351 107.074,61.319 C107.040,61.246 107.012,61.174 106.983,61.096 C104.223,54.433 106.962,47.895 109.439,41.995 C111.782,36.403 113.857,31.448 111.712,26.614 C111.704,26.593 111.696,26.572 111.688,26.551 C111.681,26.536 111.675,26.520 111.670,26.504 C111.665,26.494 111.665,26.483 111.662,26.474 C111.559,26.193 111.494,25.891 111.494,25.575 C111.494,24.136 112.661,22.968 114.098,22.968 C115.203,22.968 116.142,23.659 116.521,24.635 C119.489,31.397 116.794,38.044 114.280,44.031 C111.955,49.572 110.065,54.719 112.054,59.408 ZM84.766,36.460 C84.778,36.496 84.778,36.527 84.768,36.564 C84.822,36.777 84.861,37.000 84.861,37.228 C84.861,38.704 83.665,39.903 82.192,39.903 C81.165,39.903 80.283,39.316 79.837,38.465 C79.831,38.465 79.826,38.465 79.826,38.465 C79.811,38.433 79.801,38.402 79.785,38.371 C79.751,38.298 79.722,38.225 79.694,38.148 C76.934,31.485 79.674,24.947 82.151,19.047 C84.493,13.454 86.568,8.500 84.423,3.665 C84.415,3.645 84.407,3.623 84.399,3.603 C84.392,3.587 84.387,3.572 84.381,3.556 C84.376,3.545 84.376,3.535 84.374,3.525 C84.270,3.244 84.205,2.943 84.205,2.627 C84.205,1.188 85.372,0.019 86.809,0.019 C87.914,0.019 88.853,0.710 89.232,1.686 C92.200,8.448 89.504,15.095 86.991,21.083 C84.667,26.624 82.775,31.770 84.766,36.460 ZM47.355,60.182 C47.368,60.219 47.368,60.249 47.358,60.286 C47.412,60.499 47.451,60.722 47.451,60.951 C47.451,62.425 46.255,63.625 44.782,63.625 C43.754,63.625 42.872,63.038 42.426,62.187 C42.421,62.187 42.416,62.187 42.416,62.187 C42.400,62.155 42.390,62.125 42.374,62.093 C42.340,62.020 42.312,61.948 42.284,61.870 C39.523,55.207 42.263,48.669 44.740,42.769 C47.082,37.177 49.157,32.222 47.012,27.387 C47.004,27.367 46.997,27.345 46.989,27.325 C46.981,27.309 46.976,27.294 46.971,27.278 C46.966,27.268 46.966,27.257 46.963,27.247 C46.859,26.966 46.794,26.665 46.794,26.348 C46.794,24.910 47.962,23.742 49.398,23.742 C50.504,23.742 51.443,24.433 51.822,25.409 C54.789,32.171 52.094,38.818 49.580,44.805 C47.256,50.346 45.365,55.493 47.355,60.182 Z"/>
</svg>
